X: 33730
T: Rathlin Island
R: reel
M: 4/4
K: Adorian
e2 dB eAAB|eBde BG (3Bcd|eedB eAAB|edgd eA (3Bcd|
deed eAAB|e2 de BG (3Bcd|e2 dB eaag|edge dG (3Bcd||
A3B EGBG|AAGA BedB|A3B EGBd|(3efg dB BAAG|
A3B EGBG|ADAB deed|A3B EGBd|egdB BAAG||
e2 dB eAAB|eBde BG (3Bcd|eedB eAAB|egdB BAAG|
deed eAAB|eede gfed|deed e2 dB|dgdB BAAG||
A3B EEBG|AAGA BedB|A3B EEBG|egdB BAAG|
A3B EGBG|AAGA BedB|GAAG AAcB|BBcB BAAG||
deed eAAB|e2 de BG (3Bcd|eedB eA A2|d2 BA BAAG|
deed e2 de-|eded gfed|deed e2 de|egdB ABdB||
A3B EEBE|AAGA BedB|A3B EEBE|egdB ABBA|
A3B EEBE|AAGA BedB|GAAG AAcB|BBcB BAGB||

